X:0282
M:6/8
L:1/8
Q:3/8=84
K:D
  d2d D2d|dfd D2d|dcd efg|fdc d2:|
z|f2f d2B|f2f d2d|efg fed|cdB A3 |\
  c2c A2E|c2c A2d|efg afd|ABc d2:|

